X:1
T:Power for Service
T:Power for Service
T:Benjamin Franklin Butts
T:Elisha Albright Hoffman, 1904
T:Public Domain Courtesy of the Cyber Hymnal™
T:Public Domain Courtesy of the Cyber Hymnal™
C:Benjamin Franklin Butts
Z:Public Domain
Z:Courtesy of the Cyber Hymnal™
%%score ( 1 2 ) ( 3 4 )
L:1/8
Q:1/4=95
M:6/8
K:Bb
V:1 treble 
V:2 treble 
V:3 bass 
V:4 bass 
V:1
 [DF][DF][DF] [EF][EG][EA] | [DB][FA][EG] [DF] [B,D]2 | [B,G][B,G][EG] [DF][B,D][B,D] | %3
w: 1.~Spir- it of pow- er, a-|noint me for ser- vice,|Spir- it of ho- li- ness,|
w: 2.~Not one lost soul have I|won for Thy king- dom,|All of my life has been|
w: 3.~Ne- ver be- fore has my|soul so an hun- gered|For Thy in- fill- ing, O|
w: 4.~My- self I yield in com-|plete con- se- cra- tion,|Bo- dy and spir- it and|
 C[C=E][CG] [CF]3 | [DF][DF][DF] [EF][EG][EA] | [DB][Fd][DB] [FA] [EG]2 | %6
w: cleanse Thou my heart;|Give to my soul of Thy-|self a new vi- sion,|
w: fruit- less and waste;|O- thers have joy for the|jew- els in- ga- thered;|
w: Spir- it of love!|Come to the throne, be my|Mas- ter and Rul- er,|
w: soul to be Thine;|Spir- it of pow- er, re-|gard Thou my yearn- ings,|
 [DF][FB][=EB] [FB][FA][FB] | [=Ec][EG][_EA] [DB]3 ||"^Refrain" [Fd][Ec][DB] [Fd][Fc][FB] | %9
w: And a new mea- sure of|pow- er im- part.||
w: May not my soul of this|joy have a taste?||
w: Reign Thou and draw my af-|fect- ions a- bove.||
w: And fill Thou me with Thy|full- ness di- vine.||
 [GB][FA][EG] [DF] [B,D]2 | [FB][FB][^FB] [GB][GB][=FB] | [=EB][EG][Ed] [_Ec]3 | %12
w: |||
w: |||
w: |||
w: |||
 [Dd][Ec][Fd] [DB][EA][FB] | [Ec][EB][EG] [DB] [DF]2 | [EG]>[EA][EB] F[DB][Fd] | %15
w: |||
w: |||
w: |||
w: |||
 [Ec][=Ed][_Ec] [DB]3 |] %16
w: |
w: |
w: |
w: |
V:2
 x6 | x6 | x6 | C x5 | x6 | x6 | x6 | x6 || x6 | x6 | x6 | x6 | x6 | x6 | x3 F x2 | x6 |] %16
V:3
 [B,,B,][B,,B,][B,,B,] [F,A,][F,B,][F,C] | [B,,B,][B,,B,][B,,B,] [B,,B,] [B,,F,]2 | %2
w: ~ ~ ~ ~ ~ ~|~ ~ ~ ~ ~|
 E,[E,G,][E,B,] [B,,B,][B,,F,][B,,F,] | [C,A,][C,B,][C,B,] [F,A,]3 | %4
w: ~ ~ ~ ~ ~ ~|~ ~ ~ ~|
 [B,,B,][B,,B,][B,,B,] [F,A,][F,B,][F,C] | [B,,B,][B,,B,][B,,B,] [E,B,] [E,B,]2 | %6
w: ~ ~ ~ ~ ~ ~|~ ~ ~ ~ ~|
 [F,B,][F,D][_G,^C] [F,D][F,=C][D,B,] | [C,B,][C,C][F,C] [B,,B,]3 || %8
w: ~ ~ ~ ~ ~ ~|~ ~ ~ ~|
 [B,,B,][B,,B,][B,,F,] [B,,B,][C,A,][D,_A,] | [E,G,][E,A,][E,B,] [B,,B,] [B,,F,]2 | %10
w: Fill me with pow- er for|ser- vice and use me;|
 [B,D][B,D][A,D] [G,D][G,D][G,D] | [C,D][C,D][C,B,] [F,,A,]3 | %12
w: Is there not some work my|weak hands can do?|
 [B,,B,][B,,B,][B,,B,] [B,,F,][C,F,][D,_A,] | [E,G,][E,G,][E,B,] [B,,B,] [B,,B,]2 | %14
w: Make me a chan- nel of|life and of bless- ing,|
 [E,B,]>[E,A,][E,G,] [D,B,][G,B,][D,B,] | [E,B,][C,B,][F,A,] [B,,B,]3 |] %16
w: And with the Spir- it a-|noint me a- new.|
V:4
 x6 | x6 | E, x5 | x6 | x6 | x6 | x6 | x6 || x6 | x6 | x6 | x6 | x6 | x6 | x6 | x6 |] %16

